svg/color/cnfi.svg

<?xml version="1.0" encoding="UTF-8" ?>
<!DOCTYPE svg PUBLIC "-//W3C//DTD SVG 1.1//EN" "http://www.w3.org/Graphics/SVG/1.1/DTD/svg11.dtd">
<svg width="250pt" height="250pt" viewBox="0 0 250 250" version="1.1" xmlns="http://www.w3.org/2000/svg">
<g id="#ffffffff">
<path fill="#ffffff" opacity="1.00" d=" M 0.00 0.00 L 250.00 0.00 L 250.00 250.00 L 0.00 250.00 L 0.00 0.00 M 29.26 3.84 C 19.95 4.76 11.58 10.90 7.56 19.29 C 4.53 25.03 5.05 31.72 4.87 38.00 C 5.27 48.33 5.12 58.67 5.08 69.00 C 4.40 79.66 5.50 90.34 4.92 101.00 C 5.22 107.00 5.19 113.00 4.89 119.00 C 4.82 147.35 5.11 175.67 4.96 204.00 C 4.72 209.89 5.06 215.78 5.28 221.67 C 6.58 232.79 15.74 242.34 26.67 244.50 C 33.40 245.46 40.22 245.02 47.00 245.12 C 60.67 245.27 74.33 244.57 88.00 244.98 C 94.00 245.37 100.00 244.57 106.00 245.11 C 122.00 244.40 138.00 245.55 154.00 244.90 C 162.66 245.34 171.33 244.59 180.00 244.92 C 192.00 245.60 204.02 244.35 216.02 245.10 C 223.61 245.46 231.51 243.45 237.13 238.12 C 242.91 233.14 246.24 225.64 246.30 218.03 C 246.27 155.34 246.31 92.65 246.28 29.96 C 246.00 18.14 237.16 7.11 225.59 4.54 C 222.46 3.67 219.21 3.63 215.99 3.70 C 153.75 3.81 91.50 3.53 29.26 3.84 Z" />
<path fill="#ffffff" opacity="1.00" d=" M 67.56 64.70 C 82.80 56.63 101.72 56.30 117.53 62.96 C 115.37 66.57 112.59 69.87 111.22 73.90 C 109.56 78.32 109.21 83.08 109.12 87.76 C 104.11 86.54 99.30 84.14 94.00 84.52 C 78.84 84.12 64.44 97.61 65.12 113.02 C 64.30 128.13 78.04 141.79 93.01 141.64 C 104.37 142.35 114.08 135.24 122.36 128.34 C 128.94 122.52 136.42 117.30 145.11 115.30 C 149.67 114.35 154.32 113.58 159.00 113.64 C 174.18 113.61 189.37 113.51 204.56 113.57 C 204.67 123.22 204.64 132.86 204.57 142.51 C 188.22 142.68 171.86 142.48 155.50 142.61 C 155.30 158.46 155.60 174.31 155.36 190.17 C 146.06 190.36 136.77 190.40 127.48 190.48 C 127.25 179.73 127.54 168.98 127.34 158.24 C 119.55 162.65 111.28 166.60 102.27 167.53 C 83.56 170.45 63.68 163.04 51.00 149.03 C 43.97 141.23 39.02 131.44 37.50 121.02 C 37.18 115.68 37.16 110.31 37.53 104.97 C 40.28 87.74 51.99 72.43 67.56 64.70 Z" />
<path fill="#ffffff" opacity="1.00" d=" M 141.01 63.36 C 146.06 61.31 151.56 61.07 156.94 60.77 C 173.59 60.79 190.24 60.73 206.89 60.80 C 210.54 60.69 214.09 63.51 214.34 67.24 C 214.46 72.46 214.42 77.69 214.36 82.91 C 214.29 86.62 210.72 89.80 207.03 89.50 C 190.34 89.54 173.65 89.47 156.96 89.52 C 154.74 89.46 152.33 90.08 150.98 91.96 C 149.29 94.36 149.55 97.44 149.47 100.22 C 144.98 101.72 140.18 102.16 135.81 104.10 C 130.66 105.73 126.51 109.32 121.59 111.41 C 121.70 101.01 120.38 90.24 124.07 80.27 C 126.64 72.37 133.16 66.00 141.01 63.36 Z" />
</g>
<g id="#000000ff">
<path fill="#000000" opacity="1.00" d=" M 29.26 3.84 C 91.50 3.53 153.75 3.81 215.99 3.70 C 219.21 3.63 222.46 3.67 225.59 4.54 C 237.16 7.11 246.00 18.14 246.28 29.96 C 246.31 92.65 246.27 155.34 246.30 218.03 C 246.24 225.64 242.91 233.14 237.13 238.12 C 231.51 243.45 223.61 245.46 216.02 245.10 C 204.02 244.35 192.00 245.60 180.00 244.92 C 171.33 244.59 162.66 245.34 154.00 244.90 C 138.00 245.55 122.00 244.40 106.00 245.11 C 100.00 244.57 94.00 245.37 88.00 244.98 C 74.33 244.57 60.67 245.27 47.00 245.12 C 40.22 245.02 33.40 245.46 26.67 244.50 C 15.74 242.34 6.58 232.79 5.28 221.67 C 5.06 215.78 4.72 209.89 4.96 204.00 C 5.11 175.67 4.82 147.35 4.89 119.00 C 5.19 113.00 5.22 107.00 4.92 101.00 C 5.50 90.34 4.40 79.66 5.08 69.00 C 5.12 58.67 5.27 48.33 4.87 38.00 C 5.05 31.72 4.53 25.03 7.56 19.29 C 11.58 10.90 19.95 4.76 29.26 3.84 M 67.56 64.70 C 51.99 72.43 40.28 87.74 37.53 104.97 C 37.16 110.31 37.18 115.68 37.50 121.02 C 39.02 131.44 43.97 141.23 51.00 149.03 C 63.68 163.04 83.56 170.45 102.27 167.53 C 111.28 166.60 119.55 162.65 127.34 158.24 C 127.54 168.98 127.25 179.73 127.48 190.48 C 136.77 190.40 146.06 190.36 155.36 190.17 C 155.60 174.31 155.30 158.46 155.50 142.61 C 171.86 142.48 188.22 142.68 204.57 142.51 C 204.64 132.86 204.67 123.22 204.56 113.57 C 189.37 113.51 174.18 113.61 159.00 113.64 C 154.32 113.58 149.67 114.35 145.11 115.30 C 136.42 117.30 128.94 122.52 122.36 128.34 C 114.08 135.24 104.37 142.35 93.01 141.64 C 78.04 141.79 64.30 128.13 65.12 113.02 C 64.44 97.61 78.84 84.12 94.00 84.52 C 99.30 84.14 104.11 86.54 109.12 87.76 C 109.21 83.08 109.56 78.32 111.22 73.90 C 112.59 69.87 115.37 66.57 117.53 62.96 C 101.72 56.30 82.80 56.63 67.56 64.70 M 141.01 63.36 C 133.16 66.00 126.64 72.37 124.07 80.27 C 120.38 90.24 121.70 101.01 121.59 111.41 C 126.51 109.32 130.66 105.73 135.81 104.10 C 140.18 102.16 144.98 101.72 149.47 100.22 C 149.55 97.44 149.29 94.36 150.98 91.96 C 152.33 90.08 154.74 89.46 156.96 89.52 C 173.65 89.47 190.34 89.54 207.03 89.50 C 210.72 89.80 214.29 86.62 214.36 82.91 C 214.42 77.69 214.46 72.46 214.34 67.24 C 214.09 63.51 210.54 60.69 206.89 60.80 C 190.24 60.73 173.59 60.79 156.94 60.77 C 151.56 61.07 146.06 61.31 141.01 63.36 Z" />
</g>
</svg>

<?xml version="1.0" encoding="utf-8"?>
<!-- Generator: Adobe Illustrator 26.0.3, SVG Export Plug-In . SVG Version: 6.00 Build 0)  -->
<svg version="1.1" id="Layer_1" xmlns="http://www.w3.org/2000/svg" xmlns:xlink="http://www.w3.org/1999/xlink" x="0px" y="0px"
	 viewBox="0 0 250 250" style="enable-background:new 0 0 250 250;" xml:space="preserve">
<style type="text/css">
	.st0{fill:#FFFFFF;}
</style>
<g id="_x23_ffffffff">
	<path class="st0" d="M29.3,3.8C20,4.8,11.6,10.9,7.6,19.3C4.5,25,5.1,31.7,4.9,38c0.4,10.3,0.2,20.7,0.2,31
		c-0.7,10.7,0.4,21.3-0.2,32c0.3,6,0.3,12,0,18c-0.1,28.4,0.2,56.7,0.1,85c-0.2,5.9,0.1,11.8,0.3,17.7c1.3,11.1,10.5,20.7,21.4,22.8
		c6.7,1,13.6,0.5,20.3,0.6c13.7,0.2,27.3-0.5,41-0.1c6,0.4,12-0.4,18,0.1c16-0.7,32,0.4,48-0.2c8.7,0.4,17.3-0.3,26,0
		c12,0.7,24-0.6,36,0.2c7.6,0.4,15.5-1.7,21.1-7c5.8-5,9.1-12.5,9.2-20.1c0-62.7,0-125.4,0-188.1c-0.3-11.8-9.1-22.8-20.7-25.4
		c-3.1-0.9-6.4-0.9-9.6-0.8C153.8,3.8,91.5,3.5,29.3,3.8z"/>
	<path class="st0" d="M67.6,64.7c15.2-8.1,34.2-8.4,50-1.7c-2.2,3.6-4.9,6.9-6.3,10.9c-1.7,4.4-2,9.2-2.1,13.9
		c-5-1.2-9.8-3.6-15.1-3.2C78.8,84.1,64.4,97.6,65.1,113C64.3,128.1,78,141.8,93,141.6c11.4,0.7,21.1-6.4,29.3-13.3
		c6.6-5.8,14.1-11,22.8-13c4.6-1,9.2-1.7,13.9-1.7c15.2,0,30.4-0.1,45.6-0.1c0.1,9.7,0.1,19.3,0,28.9c-16.4,0.2-32.7,0-49.1,0.1
		c-0.2,15.9,0.1,31.7-0.1,47.6c-9.3,0.2-18.6,0.2-27.9,0.3c-0.2-10.8,0.1-21.5-0.1-32.2c-7.8,4.4-16.1,8.4-25.1,9.3
		C83.6,170.4,63.7,163,51,149c-7-7.8-12-17.6-13.5-28c-0.3-5.3-0.3-10.7,0-16C40.3,87.7,52,72.4,67.6,64.7z"/>
	<path class="st0" d="M141,63.4c5.1-2,10.6-2.3,15.9-2.6c16.6,0,33.3,0,49.9,0c3.6-0.1,7.2,2.7,7.4,6.4c0.1,5.2,0.1,10.5,0,15.7
		c-0.1,3.7-3.6,6.9-7.3,6.6c-16.7,0-33.4,0-50.1,0c-2.2-0.1-4.6,0.6-6,2.4c-1.7,2.4-1.4,5.5-1.5,8.3c-4.5,1.5-9.3,1.9-13.7,3.9
		c-5.1,1.6-9.3,5.2-14.2,7.3c0.1-10.4-1.2-21.2,2.5-31.1C126.6,72.4,133.2,66,141,63.4z"/>
</g>
<g id="_x23_000000ff">
	<path d="M29.3,3.8c62.2-0.3,124.5,0,186.7-0.1c3.2-0.1,6.5,0,9.6,0.8C237.2,7.1,246,18.1,246.3,30c0,62.7,0,125.4,0,188.1
		c-0.1,7.6-3.4,15.1-9.2,20.1c-5.6,5.3-13.5,7.3-21.1,7c-12-0.8-24,0.5-36-0.2c-8.7-0.3-17.3,0.4-26,0c-16,0.7-32-0.5-48,0.2
		c-6-0.5-12,0.3-18-0.1c-13.7-0.4-27.3,0.3-41,0.1c-6.8-0.1-13.6,0.3-20.3-0.6c-10.9-2.2-20.1-11.7-21.4-22.8
		C5.1,215.8,4.7,209.9,5,204c0.2-28.3-0.1-56.6-0.1-85c0.3-6,0.3-12,0-18c0.6-10.7-0.5-21.3,0.2-32c0-10.3,0.2-20.7-0.2-31
		c0.2-6.3-0.3-13,2.7-18.7C11.6,10.9,20,4.8,29.3,3.8 M67.6,64.7c-15.6,7.7-27.3,23-30,40.3c-0.4,5.3-0.3,10.7,0,16
		C39,131.4,44,141.2,51,149c12.7,14,32.6,21.4,51.3,18.5c9-0.9,17.3-4.9,25.1-9.3c0.2,10.7-0.1,21.5,0.1,32.2
		c9.3-0.1,18.6-0.1,27.9-0.3c0.2-15.9-0.1-31.7,0.1-47.6c16.4-0.1,32.7,0.1,49.1-0.1c0.1-9.6,0.1-19.3,0-28.9
		c-15.2-0.1-30.4,0-45.6,0.1c-4.7-0.1-9.3,0.7-13.9,1.7c-8.7,2-16.2,7.2-22.8,13c-8.3,6.9-18,14-29.3,13.3
		c-15,0.1-28.7-13.5-27.9-28.6C64.4,97.6,78.8,84.1,94,84.5c5.3-0.4,10.1,2,15.1,3.2c0.1-4.7,0.4-9.4,2.1-13.9
		c1.4-4,4.2-7.3,6.3-10.9C101.7,56.3,82.8,56.6,67.6,64.7 M141,63.4c-7.8,2.6-14.4,9-16.9,16.9c-3.7,10-2.4,20.7-2.5,31.1
		c4.9-2.1,9.1-5.7,14.2-7.3c4.4-1.9,9.2-2.4,13.7-3.9c0.1-2.8-0.2-5.9,1.5-8.3c1.4-1.9,3.8-2.5,6-2.4c16.7,0,33.4,0,50.1,0
		c3.7,0.3,7.3-2.9,7.3-6.6c0.1-5.2,0.1-10.5,0-15.7c-0.2-3.7-3.8-6.5-7.4-6.4c-16.6-0.1-33.3,0-49.9,0
		C151.6,61.1,146.1,61.3,141,63.4z"/>
</g>
</svg>
